packages/elvis-assets-icons/icons/svg/src/thumbnail.svg

<svg width="24" height="24" viewBox="0 0 24 24" fill="none" xmlns="http://www.w3.org/2000/svg">
<path fill-rule="evenodd" clip-rule="evenodd" d="M2.25 1.5C1.83579 1.5 1.5 1.83579 1.5 2.25V8.25C1.5 8.66421 1.83579 9 2.25 9H8.25C8.66421 9 9 8.66421 9 8.25V2.25C9 1.83579 8.66421 1.5 8.25 1.5H2.25ZM0 2.25C0 1.00736 1.00736 0 2.25 0H8.25C9.49264 0 10.5 1.00736 10.5 2.25V8.25C10.5 9.49264 9.49264 10.5 8.25 10.5H2.25C1.00736 10.5 0 9.49264 0 8.25V2.25Z" fill="black"/>
<path fill-rule="evenodd" clip-rule="evenodd" d="M2.25 15C1.83579 15 1.5 15.3358 1.5 15.75V21.75C1.5 22.1642 1.83579 22.5 2.25 22.5H8.25C8.66421 22.5 9 22.1642 9 21.75V15.75C9 15.3358 8.66421 15 8.25 15H2.25ZM0 15.75C0 14.5074 1.00736 13.5 2.25 13.5H8.25C9.49264 13.5 10.5 14.5074 10.5 15.75V21.75C10.5 22.9926 9.49264 24 8.25 24H2.25C1.00736 24 0 22.9926 0 21.75V15.75Z" fill="black"/>
<path fill-rule="evenodd" clip-rule="evenodd" d="M15.75 1.5C15.3358 1.5 15 1.83579 15 2.25V8.25C15 8.66421 15.3358 9 15.75 9H21.75C22.1642 9 22.5 8.66421 22.5 8.25V2.25C22.5 1.83579 22.1642 1.5 21.75 1.5H15.75ZM13.5 2.25C13.5 1.00736 14.5074 0 15.75 0H21.75C22.9926 0 24 1.00736 24 2.25V8.25C24 9.49264 22.9926 10.5 21.75 10.5H15.75C14.5074 10.5 13.5 9.49264 13.5 8.25V2.25Z" fill="black"/>
<path fill-rule="evenodd" clip-rule="evenodd" d="M15.75 15C15.3358 15 15 15.3358 15 15.75V21.75C15 22.1642 15.3358 22.5 15.75 22.5H21.75C22.1642 22.5 22.5 22.1642 22.5 21.75V15.75C22.5 15.3358 22.1642 15 21.75 15H15.75ZM13.5 15.75C13.5 14.5074 14.5074 13.5 15.75 13.5H21.75C22.9926 13.5 24 14.5074 24 15.75V21.75C24 22.9926 22.9926 24 21.75 24H15.75C14.5074 24 13.5 22.9926 13.5 21.75V15.75Z" fill="black"/>
</svg>

<svg width="24" height="24" fill="none" xmlns="http://www.w3.org/2000/svg"><path fill-rule="evenodd" clip-rule="evenodd" d="M2.25 1.5a.75.75 0 00-.75.75v6c0 .414.336.75.75.75h6A.75.75 0 009 8.25v-6a.75.75 0 00-.75-.75h-6zM0 2.25A2.25 2.25 0 012.25 0h6a2.25 2.25 0 012.25 2.25v6a2.25 2.25 0 01-2.25 2.25h-6A2.25 2.25 0 010 8.25v-6zM2.25 15a.75.75 0 00-.75.75v6c0 .414.336.75.75.75h6a.75.75 0 00.75-.75v-6a.75.75 0 00-.75-.75h-6zM0 15.75a2.25 2.25 0 012.25-2.25h6a2.25 2.25 0 012.25 2.25v6A2.25 2.25 0 018.25 24h-6A2.25 2.25 0 010 21.75v-6zM15.75 1.5a.75.75 0 00-.75.75v6c0 .414.336.75.75.75h6a.75.75 0 00.75-.75v-6a.75.75 0 00-.75-.75h-6zm-2.25.75A2.25 2.25 0 0115.75 0h6A2.25 2.25 0 0124 2.25v6a2.25 2.25 0 01-2.25 2.25h-6a2.25 2.25 0 01-2.25-2.25v-6zM15.75 15a.75.75 0 00-.75.75v6c0 .414.336.75.75.75h6a.75.75 0 00.75-.75v-6a.75.75 0 00-.75-.75h-6zm-2.25.75a2.25 2.25 0 012.25-2.25h6A2.25 2.25 0 0124 15.75v6A2.25 2.25 0 0121.75 24h-6a2.25 2.25 0 01-2.25-2.25v-6z" fill="#000"/></svg>
